X:1
T:There Is Never a Day So Dreary
T:There Is Never a Day So Dreary
T:George Coles Stebbins
T:Illa M. Alexander, 1894
T:Public Domain Courtesy of the Cyber Hymnal™
T:Public Domain Courtesy of the Cyber Hymnal™
C:George Coles Stebbins
Z:Public Domain
Z:Courtesy of the Cyber Hymnal™
%%score ( 1 2 ) 3
L:1/8
Q:1/4=90
M:6/8
K:Db
V:1 treble 
V:2 treble 
V:3 bass 
V:1
 [DF]/[DF]/ | [DF][DF][DF] [DF]2 [EG] | [FA]3 [FA]2 ([EA]/[EA]/) | [DG]2 [DG] [DB]2 [Gd] | %4
w: 1.~There is|ne- ver a day so|drear- y, But *|God can make it|
w: 2.~There is|ne- ver a cross so|hea- vy, But~the *|nail scarred hands are|
w: 3.~There is|ne- ver a life so|dark- ened, So *|hope- less and un-|
 [FA]3- [FA]2 [DA] | ([DB][DB])[DB] ([DA][DA])D | ([CB]2 [CB]) [DF]2 [DF] | (EE)E ([DE][DF])[DE] | %8
w: bright; * And|unto * the soul * that|trusts * Him, He|giv- * eth songs~in * the|
w: there, * Out-|stretched * in tender * com-|pas- * sion The|burden * to help * us|
w: blest, * But|may * be filled~with * the|light~of * God, And|enter * His prom- * ised|
 [CA]3- [CA]2 [CG]/[B,G]/ | [DF][DF][DF] [DF]2 [EG] | [FA]3 [FA]2 ([EA]/[EA]/) | %11
w: night. * There is|ne- ver a path so|hid- den, But *|
w: bear. * There is|ne- ver a heart so|bro- ken, But~the *|
w: rest. * There is|ne- ver a sin or|sor- row, There~is *|
 ([DG][DG])[DG] [DB]2 [Gd] | [FA]3- [FA]2 ([FA]/[FA]/) | [Fd][Fd][Fd] [Ec]2 [EF] | %14
w: God * will lead the|way, * If~we *|seek for the Spir- it’s|
w: lov- * ing Lord can|heal; * For~the *|heart that was pierced on|
w: never * a care or|loss, * But *|that we may bring to|
 [DB]3 [DA]2 [DG] | [DF][DF][DF] ([CE][CE])[CA] | [DA]3- [DA]2 ([FA]/[FA]/) | %17
w: guid- ance, And|pa- tient- ly wait * and|pray, * If~we *|
w: Cal- v’ry, Doth|still for His loved * ones|feel; * For~the *|
w: Je- sus, And|leave at the foot~of * the|cross, * But *|
 [Fd][Fd][Fd] [Af]2 [=Ae] | ([Bd]2 [Ac]) !fermata![GB]2 [GB] | [FA][DF][DG] ([DF][DF])[CE] | %20
w: seek for the Spir- it’s|guid- * ance, And|pa- tient- ly wait * and|
w: heart that was pierced on|Cal- * v’ry, Doth|still for His loved * ones|
w: that we may bring to|Je- * sus, And|leave at the foot~of * the|
 D3- D2 |] %21
w: pray. *|
w: feel. *|
w: cross. *|
V:2
 x | x6 | x6 | x6 | x6 | x5 D | x6 | EEE x3 | x6 | x6 | x6 | x6 | x6 | x6 | x6 | x6 | x6 | x6 | %18
 x6 | x6 | D3- D2 |] %21
V:3
 [D,A,]/[D,A,]/ | [D,A,][D,A,][D,A,] [D,A,]2 [D,A,] | [D,D]3 [D,D]2 ([D,C]/[D,C]/) | %3
 [D,B,]2 [D,B,] [D,G,]2 [D,B,] | [D,D]3- [D,D]2 [F,D] | ([F,D][F,D])[F,D] ([F,D][F,D])[F,A,] | %6
 ([E,A,]2 [E,A,]) [D,A,]2 [D,A,] | ([C,A,][C,A,])[C,A,] ([B,,=G,][B,,G,])[B,,G,] | %8
 [A,,A,]3- [A,,A,]2 [A,,A,]/[A,,A,]/ | [D,A,][D,A,][D,A,] [D,A,]2 [D,A,] | %10
 [D,D]3 [D,D]2 ([D,C]/[D,C]/) | ([D,B,][D,B,])[D,B,] [D,G,]2 [D,B,] | %12
 [D,-D]3 [D,A,]2 ([D,A,]/[D,A,]/) | [B,,B,][B,,B,][B,,B,] [F,=A,]2 [F,A,] | %14
 [G,B,]3 [F,_C]2 [E,B,] | [A,,A,][A,,A,][A,,A,] ([A,,G,][A,,G,])[A,,G,] | %16
 [D,F,]3- [D,F,]2 ([D,A,]/[D,A,]/) | [D,A,][D,A,][D,A,] [D,D]2 [F,D] | [G,D]3 [E,D]2 [G,,D] | %19
 [G,,D][A,,A,][A,,B,] ([A,,A,][A,,A,])[A,,G,] | [D,F,]3- [D,F,]2 |] %21

